X: 40
T: No_24_Song_Concerning_a_Man's_Tumanos.krn
N: Derived from No_24_Song_Concerning_a_Man's_Tumanos.krn
%%abc-version 2.0
%%abcx-abcm2ps-target-version 5.9.1 (29 Sep 2008)
%%abc-creator hum2abc beta
%%abcx-conversion-date 2019/03/15 08:36:13
%%humdrum-veritas 1945258543
%%humdrum-veritas-data 2361747825
%%linebreak <none>
%%barnumbers 0
L: 1/8
M: 2/4
K: Bb clef=bass
[K:clef=bass][M:2/4]B,4- | 
B,2G,2 | 
B,4 | 
(3B,G,F, z z/ B,/ | 
B,2G,3/G,/ ||  
[M:3/4]B,2G,2F, z ||  
[M:2/4]B,2(3CB,G,- | 
G,2F,2 ||  
[M:3/4]B,B, F, z B,3/F,/ ||  
[M:2/4]G,2F,2 | 
C,2F,3/C,/ | 
D,2C,2 | 
B,, z C,C, | 
B,,B,, B,,B,, | 
B,,2B,,3/B,,/ | 
B,, z F,3/C,/ | 
D,2C,2 | 
B,, z C,C, | 
B,,B,, B,,B,, | 
B,,2B,,3/B,,/ | 
B,, zz2 |]  



